resources/icons/16px/layout-three-columns.svg

<svg width="16" height="16" viewBox="0 0 16 16" fill="none" xmlns="http://www.w3.org/2000/svg">
<path d="M12 1C12 0.447715 12.4477 0 13 0H15C15.5523 0 16 0.447715 16 1V15C16 15.5523 15.5523 16 15 16H13C12.4477 16 12 15.5523 12 15V1Z" fill="black"/>
<path d="M6 1C6 0.447715 6.44772 0 7 0H9C9.55228 0 10 0.447715 10 1V15C10 15.5523 9.55228 16 9 16H7C6.44772 16 6 15.5523 6 15V1Z" fill="black"/>
<path d="M0 1C0 0.447715 0.447715 0 1 0H3C3.55228 0 4 0.447715 4 1V15C4 15.5523 3.55228 16 3 16H1C0.447715 16 0 15.5523 0 15V1Z" fill="black"/>
</svg>

<svg xmlns="http://www.w3.org/2000/svg" viewBox="0 0 16 16">
  <path d="M12 1a1 1 0 0 1 1-1h2a1 1 0 0 1 1 1v14a1 1 0 0 1-1 1h-2a1 1 0 0 1-1-1zM6 1a1 1 0 0 1 1-1h2a1 1 0 0 1 1 1v14a1 1 0 0 1-1 1H7a1 1 0 0 1-1-1zM0 1a1 1 0 0 1 1-1h2a1 1 0 0 1 1 1v14a1 1 0 0 1-1 1H1a1 1 0 0 1-1-1z"/>
</svg>
